X: 3
T: Tripping Up The Stairs
R: jig
M: 6/8
L: 1/8
K: Dmaj
|:FAF GBG|FAd fed|cBc ABc|dfe dAG|FAF GBG|FAd fed|cBc ABc|dfe d2A:|dBB fBB|fgf fed|cAA eAA|efe edc|dBB fBB|fgf fed|cBc ABc|dfe dag:|dBB fBB|f/2g/2ag fed|cAA eAA|f/2g/2ag fec|dBB fBB|f/2g/2ag fed|cBc ABc|dfe dag:|


Tune 111	Setting 28407

